packages/vibrant-icons/assets/icons/AlphabetA/Thin.svg

<svg width="24" height="24" viewBox="0 0 24 24" fill="none" xmlns="http://www.w3.org/2000/svg">
<path fill-rule="evenodd" clip-rule="evenodd" d="M13.4218 2.38405C13.3938 2.30377 13.318 2.25 13.233 2.25H10.767C10.682 2.25 10.6062 2.30377 10.5782 2.38405L3.99377 21.234C3.94836 21.3641 4.04487 21.5 4.18259 21.5H5.65052C5.73519 21.5 5.81069 21.4467 5.83901 21.3669L7.79618 15.8499H16.2038L18.161 21.3669C18.1893 21.4467 18.2648 21.5 18.3495 21.5H19.8174C19.9551 21.5 20.0516 21.3641 20.0062 21.234L13.4218 2.38405ZM15.6007 14.1499L12 4L8.39926 14.1499H15.6007Z" fill="#0C0C0C"/>
</svg>

<svg xmlns="http://www.w3.org/2000/svg" width="24" height="24" fill="none"><path fill="#0C0C0C" fill-rule="evenodd" d="M13.422 2.384a.2.2 0 0 0-.189-.134h-2.466a.2.2 0 0 0-.189.134l-6.584 18.85a.2.2 0 0 0 .189.266H5.65a.2.2 0 0 0 .188-.133l1.957-5.517h8.408l1.957 5.517a.2.2 0 0 0 .188.133h1.468a.2.2 0 0 0 .19-.266zM15.6 14.15 12 4 8.4 14.15z" clip-rule="evenodd"/></svg>
